packages/foundations/assets/icons/functional/images/devices/fax_machine.svg

<svg xmlns="http://www.w3.org/2000/svg" width="32" height="32" fill="none"><path fill="#1A1C1F" fill-rule="evenodd" d="M9.562 2.104c-.711.222-1.336.9-1.505 1.632-.034.147-.055 1.396-.056 3.291L8 10.08h-.121c-.242 0-.926.225-1.343.442-1.455.758-2.445 2.24-3.016 4.518-.287 1.142-.404 2.022-.49 3.671-.195 3.757.475 7.113 1.813 9.084.68 1.003 1.535 1.687 2.477 1.984 1.468.464 3.095.159 3.848-.72.378-.442.672-1.236.672-1.814v-.258l7.293-.001c8.004-.001 7.52.019 8.225-.326.477-.233 1.092-.853 1.327-1.338.328-.677.326-.655.326-5.322s.002-4.645-.326-5.322c-.251-.517-.851-1.109-1.378-1.358-.401-.19-.828-.307-1.123-.307h-.157V10.01c0-2.541-.013-3.046-.082-3.279-.076-.255-.228-.423-2.17-2.387-1.193-1.206-2.175-2.156-2.29-2.215-.194-.099-.382-.102-5.95-.099-4.597.003-5.793.018-5.973.074M19.04 6.04c0 1.239.022 2.118.056 2.238.073.266.292.516.555.635.197.09.393.098 2.282.099L24 9.013v4H11.856l-.034-.413c-.086-1.056-.584-1.825-1.447-2.234l-.402-.191V7.171c0-2.659.01-3.013.084-3.087S10.617 4 14.59 4h4.45zm4.471.952c.01.028-.519.048-1.24.048h-1.258V4.425l1.24 1.259c.682.693 1.248 1.282 1.258 1.308M9.484 12.128c.328.17.329.179.329 1.78 0 1.198-.014 1.485-.081 1.614-.129.25-.325.318-.916.318-.287 0-.609.024-.714.054-.462.128-.771.688-.966 1.751-.102.552-.115.817-.116 2.355-.001 1.371.017 1.847.087 2.276.165 1.004.411 1.524.817 1.724.176.087.324.107.789.107.623 0 .794.051.989.299.107.136.111.202.111 1.624v1.482l-.137.163c-.184.219-.472.288-1.089.261-.437-.018-.557-.045-.867-.195-1.31-.631-2.188-2.459-2.584-5.377-.118-.867-.135-3.995-.027-4.871.301-2.447.832-3.883 1.761-4.762.34-.322.833-.59 1.242-.677.342-.072 1.176-.027 1.372.074m16.964 2.992c.099.059.255.199.346.312l.166.205v8.726l-.163.205c-.09.113-.269.259-.398.325l-.235.12H11.84v-.237c0-1.169-.855-2.262-2.002-2.561a2.6 2.6 0 0 0-.513-.082c-.188 0-.203-.012-.243-.2-.054-.257-.055-3.484-.001-3.8l.042-.24.458-.089c.599-.116 1.06-.348 1.443-.727.491-.484.813-1.221.815-1.865l.001-.227 7.213.014c7.105.014 7.216.016 7.395.121m-8.876 2.981c-.226.099-.494.422-.536.648-.09.48.124.944.524 1.138.765.37 1.565-.278 1.404-1.138-.044-.232-.313-.552-.548-.65-.217-.091-.633-.09-.844.002m2.988.01a.93.93 0 0 0-.486.537c-.304.797.48 1.582 1.278 1.278a.94.94 0 0 0 .597-.664c.169-.652-.272-1.236-.933-1.235-.164 0-.368.038-.456.084m2.9.068a.956.956 0 0 0-.16 1.507c.401.401.966.413 1.364.03.396-.381.445-.882.13-1.325-.273-.383-.905-.483-1.334-.212m-5.887 2.923c-.247.131-.353.24-.459.471-.198.431-.071.948.303 1.233.179.137.245.154.583.154.336 0 .405-.018.578-.15.489-.373.544-1.154.108-1.537-.297-.26-.798-.337-1.113-.171m2.969.023c-.656.333-.717 1.283-.108 1.686.243.161.641.217.91.128.554-.183.82-.982.494-1.482-.266-.408-.852-.558-1.296-.332m3.058-.039c-.334.156-.61.569-.612.917-.002.246.236.672.461.824.161.109.261.133.551.133s.39-.024.551-.133c.225-.153.462-.577.462-.827 0-.248-.237-.674-.457-.824-.234-.158-.713-.203-.956-.09"/></svg>

<svg width="32" height="32" viewBox="0 0 32 32" fill="none" xmlns="http://www.w3.org/2000/svg"><path d="M9.562 2.104 C 8.851 2.326,8.226 3.004,8.057 3.736 C 8.023 3.883,8.002 5.132,8.001 7.027 L 8.000 10.080 7.879 10.080 C 7.637 10.080,6.953 10.305,6.536 10.522 C 5.081 11.280,4.091 12.762,3.520 15.040 C 3.233 16.182,3.116 17.062,3.030 18.711 C 2.835 22.468,3.505 25.824,4.843 27.795 C 5.523 28.798,6.378 29.482,7.320 29.779 C 8.788 30.243,10.415 29.938,11.168 29.059 C 11.546 28.617,11.840 27.823,11.840 27.245 L 11.840 26.987 19.133 26.986 C 27.137 26.985,26.653 27.005,27.358 26.660 C 27.835 26.427,28.450 25.807,28.685 25.322 C 29.013 24.645,29.011 24.667,29.011 20.000 C 29.011 15.333,29.013 15.355,28.685 14.678 C 28.434 14.161,27.834 13.569,27.307 13.320 C 26.906 13.130,26.479 13.013,26.184 13.013 L 26.027 13.013 26.027 10.010 C 26.027 7.469,26.014 6.964,25.945 6.731 C 25.869 6.476,25.717 6.308,23.775 4.344 C 22.582 3.138,21.600 2.188,21.485 2.129 C 21.291 2.030,21.103 2.027,15.535 2.030 C 10.938 2.033,9.742 2.048,9.562 2.104 M19.040 6.040 C 19.040 7.279,19.062 8.158,19.096 8.278 C 19.169 8.544,19.388 8.794,19.651 8.913 C 19.848 9.003,20.044 9.011,21.933 9.012 L 24.000 9.013 24.000 11.013 L 24.000 13.013 17.928 13.013 L 11.856 13.013 11.822 12.600 C 11.736 11.544,11.238 10.775,10.375 10.366 L 9.973 10.175 9.973 7.171 C 9.973 4.512,9.983 4.158,10.057 4.084 C 10.132 4.009,10.617 4.000,14.590 4.000 L 19.040 4.000 19.040 6.040 M23.511 6.992 C 23.521 7.020,22.992 7.040,22.271 7.040 L 21.013 7.040 21.013 5.732 L 21.013 4.425 22.253 5.684 C 22.935 6.377,23.501 6.966,23.511 6.992 M9.484 12.128 C 9.812 12.298,9.813 12.307,9.813 13.908 C 9.813 15.106,9.799 15.393,9.732 15.522 C 9.603 15.772,9.407 15.840,8.816 15.840 C 8.529 15.840,8.207 15.864,8.102 15.894 C 7.640 16.022,7.331 16.582,7.136 17.645 C 7.034 18.197,7.021 18.462,7.020 20.000 C 7.019 21.371,7.037 21.847,7.107 22.276 C 7.272 23.280,7.518 23.800,7.924 24.000 C 8.100 24.087,8.248 24.107,8.713 24.107 C 9.336 24.107,9.507 24.158,9.702 24.406 C 9.809 24.542,9.813 24.608,9.813 26.030 L 9.813 27.512 9.676 27.675 C 9.492 27.894,9.204 27.963,8.587 27.936 C 8.150 27.918,8.030 27.891,7.720 27.741 C 6.410 27.110,5.532 25.282,5.136 22.364 C 5.018 21.497,5.001 18.369,5.109 17.493 C 5.410 15.046,5.941 13.610,6.870 12.731 C 7.210 12.409,7.703 12.141,8.112 12.054 C 8.454 11.982,9.288 12.027,9.484 12.128 M26.448 15.120 C 26.547 15.179,26.703 15.319,26.794 15.432 L 26.960 15.637 26.960 20.000 L 26.960 24.363 26.797 24.568 C 26.707 24.681,26.528 24.827,26.399 24.893 L 26.164 25.013 19.002 25.013 L 11.840 25.013 11.840 24.776 C 11.840 23.607,10.985 22.514,9.838 22.215 C 9.665 22.170,9.434 22.133,9.325 22.133 C 9.137 22.133,9.122 22.121,9.082 21.933 C 9.028 21.676,9.027 18.449,9.081 18.133 L 9.123 17.893 9.581 17.804 C 10.180 17.688,10.641 17.456,11.024 17.077 C 11.515 16.593,11.837 15.856,11.839 15.212 L 11.840 14.985 19.053 14.999 C 26.158 15.013,26.269 15.015,26.448 15.120 M17.572 18.101 C 17.346 18.200,17.078 18.523,17.036 18.749 C 16.946 19.229,17.160 19.693,17.560 19.887 C 18.325 20.257,19.125 19.609,18.964 18.749 C 18.920 18.517,18.651 18.197,18.416 18.099 C 18.199 18.008,17.783 18.009,17.572 18.101 M20.560 18.111 C 20.311 18.240,20.170 18.396,20.074 18.648 C 19.770 19.445,20.554 20.230,21.352 19.926 C 21.662 19.807,21.867 19.580,21.949 19.262 C 22.118 18.610,21.677 18.026,21.016 18.027 C 20.852 18.027,20.648 18.065,20.560 18.111 M23.460 18.179 C 22.924 18.519,22.848 19.234,23.300 19.686 C 23.701 20.087,24.266 20.099,24.664 19.716 C 25.060 19.335,25.109 18.834,24.794 18.391 C 24.521 18.008,23.889 17.908,23.460 18.179 M17.573 21.102 C 17.326 21.233,17.220 21.342,17.114 21.573 C 16.916 22.004,17.043 22.521,17.417 22.806 C 17.596 22.943,17.662 22.960,18.000 22.960 C 18.336 22.960,18.405 22.942,18.578 22.810 C 19.067 22.437,19.122 21.656,18.686 21.273 C 18.389 21.013,17.888 20.936,17.573 21.102 M20.542 21.125 C 19.886 21.458,19.825 22.408,20.434 22.811 C 20.677 22.972,21.075 23.028,21.344 22.939 C 21.898 22.756,22.164 21.957,21.838 21.457 C 21.572 21.049,20.986 20.899,20.542 21.125 M23.600 21.086 C 23.266 21.242,22.990 21.655,22.988 22.003 C 22.986 22.249,23.224 22.675,23.449 22.827 C 23.610 22.936,23.710 22.960,24.000 22.960 C 24.290 22.960,24.390 22.936,24.551 22.827 C 24.776 22.674,25.013 22.250,25.013 22.000 C 25.013 21.752,24.776 21.326,24.556 21.176 C 24.322 21.018,23.843 20.973,23.600 21.086 " fill="#1A1C1F" stroke="none" fill-rule="evenodd"></path></svg>
